!!!!SEGMENT: pl-kk--kk-i-388--013_anonim--zdrowas-marya.krn
!!!cenid: 18xx:1410
!!!COM: Anonim
!!!COM-rismid: pe30004985
!!!CDT:
!!!CNT:
!!!OTL: Zdrowaś Marya
!!!PDT:
!!!AGN: Sacred
!!!SMS-siglum: PL-Kk
!!!SMS-shelfmark: Kk.I.388
!!!SMS-shelfwork: 013 W
!!!SMS-variant:
!!!SMS-altvar:
!!!NIFC-rismid: 1001140922
!!!URL-scan: http://repozytorium.nifc.pl/skany/pl-kk-nut--i-388
!!!ONB-nifc:
!!!key:
**kern	**text	**kern	**text	**kern	**text	**kern	**text
*part4	*part4	*part3	*part3	*part2	*part2	*part1	*part1
*staff4	*staff4	*staff3	*staff3	*staff2	*staff2	*staff1	*staff1
*Ibass	*	*Itenor	*	*Ialto	*	*Isoprn	*
*I"Basso.	*	*I"Tenore.	*	*I"Alto.	*	*I"Soprano.	*
*I'B	*	*I'T	*	*I'A	*	*I'S	*
*clefF4	*	*clefC4	*	*clefC3	*	*clefC1	*
*k[b-e-a-]	*	*k[b-e-a-]	*	*k[b-e-a-]	*	*k[b-e-a-]	*
*E-:	*	*E-:	*	*E-:	*	*E-:	*
*M4/4	*	*M4/4	*	*M4/4	*	*M4/4	*
*met(C.)	*	*met(C.)	*	*met(C.)	*	*met(C.)	*
=1	=1	=1	=1	=1	=1	=1	=1
*2\right	*	*2\right	*	*2\right	*	*2\right	*
!LO:TX:t=P:problem=all\right&colon; global	!	!	!	!LO:TX:t=P:problem=all\right&colon; global	!	!LO:TX:t=P:problem=all\right&colon; global	!
!LO:TX:t=P:problem=w źródle kolejność i wysokość bemoli przykluczowych - BB- E- A-	!	!	!	!	!	!	!
!LO:TX:a:i:t=in Es.	!	!LO:TX:a:i:t=in Es.	!	!LO:TX:a:i:t=in Es.	!	!LO:TX:a:i:t=in Es.	!
!	!	!LO:TX:t=P:problem=all\right&colon; global	!	!	!	!	!
2E-\	Zdro-	4G/	Zdro-	(>4e-\	Zdro-	4b-\	Zdro-
.	.	4e-\	-was	4g\)	.	4g\	.
4E-\	was	4B-\	bądz	4g\	-waś	4ee-\	-waś
4E-\	Ma-	8A-\L	Ma-	8f\L	Ma-	4b-\	Ma-
.	.	8G\J	.	8e-\J	.	.	.
=2	=2	=2	=2	=2	=2	=2	=2
2AA-/	-ri-	2A-\	-ri-	2e-\	-ri-	2cc\	-ry-
4E-\	-a	4G/	-a	4e-\	-a,	4b-\	-a,
4r	.	4r	.	4r	.	4r	.
=3	=3	=3	=3	=3	=3	=3	=3
4E-\	ła-	4B-\	ła-	4g\	ła-	4gg\	ła-
4E-\	-skis	4B-\	-skis	4g\	-skis	4ee-\	-skiś
4E-\	Bo-	4G\	Bo-	4b-\	Bo-	4b-\	Bo-
4E-\	-żey	8G\L	-żey	4b-\	-żey	8ee-\L	-żey
.	.	8B-\J	.	.	.	8gg\J	.
=4	=4	=4	=4	=4	=4	=4	=4
4BB-/	peł-	4B-\	peł-	4dd\	peł-	4ff\	peł-
4BB-/	-na,	4B-\	-na,	4dd\	-na,	4ff\	-na,
2r	.	2r	.	2r	.	2r	.
=5	=5	=5	=5	=5	=5	=5	=5
4E-\	Pan	4G\	Pan	4e-\	Pan	4b-\	Pan
8E-\	z_to-	8e-\	z_to-	8g\	z_to-	8g\	z_to-
8E-\	-bą	8e-\	-bą	8g\	-bą	8g\	-bą
8E-\	bło-	8B-\	bło-	8g\	bło-	8ee-\	bło-
8E-\	-go-	8B-\	-go-	8g\	-go-	8ee-\	-go-
8E-\	-sła-	8A-\	-sła-	8f\	-sła-	8b-\	-sła-
8E-\	-wio-	8G\	-wio-	8e-\	-wio-	8b-\	-wio-
!LO:LB:g=original	!	!LO:LB:g=original	!	!LO:LB:g=original	!	!LO:LB:g=original	!
=6	=6	=6	=6	=6	=6	=6	=6
2AA-/	-nas	2A-\	-nas	2e-\	-naś	2cc\	-naś
4E-\	ty,	4G/	ty	4e-\	ty,	4b-\	ty
4r	.	4r	.	4r	.	4r	.
=7	=7	=7	=7	=7	=7	=7	=7
4E-\	mię-	4B-\	mię-	4g\	mię-	4gg\	mię-
4E-\	-dzy	4B-\	-dzy	4g\	-dzy	4ee-\	-dzy
4E-\	Nie-	4G\	Nie-	4b-\	Nie-	4b-\	Nie-
4E-\	-wia-	8G\L	-wia-	4b-\	-wia-	8ee-\L	-wia-
.	.	8B-\J	.	.	.	8gg\J	.
=8	=8	=8	=8	=8	=8	=8	=8
4BB-/	-sta-	4B-\	-sta-	4dd\	-sta-	4ff\	-sta-
4B-\	-mi,	4B-\	-mi,	4dd\	-mi,	4ff\	-mi
2r	.	2r	.	2r	.	2r	.
=9|	=9|	=9|	=9|	=9||	=9||	=9||	=9||
4BB-/	i	4A-\	i	4a-\	i	4ff\	i
8BB-/	bło-	8A-\	bło-	8a-\	bło-	8ff\	bło-
8BB-/	-go-	8G\	-go-	8g\	-go-	8ee-\	-go-
4BB-/	-sła-	4F/	-sła-	4f\	-sła-	4dd\	-sła-
4D\	-wion	8F/L	-wion	8f\L	-wion	4b-\	-wion
.	.	8B-/J	.	8b-\J	.	.	.
=10	=10	=10	=10	=10	=10	=10	=10
4.E-\	O-	4.G/	O-	4.b-\	O-	4gg\	O-
.	.	.	.	.	.	4gg\	-woc
8F\	-woc	8A-\	-woc	8b-\	-woc	.	.
4G\	Ży-	4B-\	Ży-	4b-\	ży-	4ee-\	Ży-
8A-\	-wo-	8d\	-wo-	8b-\	-wo-	8ff\	-wo-
8G\	-ta	8e-\	-ta	8b-\	-ta	8gg\	-ta
!LO:LB:g=original	!	!LO:LB:g=original	!	!LO:LB:g=original	!	!LO:LB:g=original	!
=11	=11	=11	=11	=11	=11	=11	=11
2F\	two-	2d\	two-	2b-\	two-	2aa-\	two-
4E-\	-ie-	4e-\	-ie-	4b-\	-ie-	4gg\	-ie-
4E-\	-go	4e-\	-go	4b-\	-go	4gg\	-go,
=12	=12	=12	=12	=12	=12	=12	=12
4BB-/	Je-	4d\	Je-	4b-\	Je-	4ff\	Je-
4BB-/	-zus,	4d\	-zus,	4b-\	-zus.	4ff\	-zus,
2r	.	2r	.	2r	.	2r	.
=13	=13	=13	=13	=13	=13	=13	=13
4E-\	ſwię-	4B-\	swię-	4g\	swię-	4gg\	swię-
8D\	-ta	8Bn\	-ta	8g\	-ta	8ff\	-ta
8D\	Ma-	8B\	Ma-	8g\	Ma-	8ff\	Ma-
4C/	-ri-	4c\	-ri-	4g\	-ri-	4ee-\	-ri-
4G\	-a	4B\	-a	4g\	-a	4dd\	-a
=14	=14	=14	=14	=14	=14	=14	=14
4A-\	Mat-	4c\	Mat-	4a-\	Mat-	4cc\	Mat-
4F\	-ko	4c\	-ko	4a-\	-ko	4aa-\	-ko
4G\	Bo-	4en\	Bo-	4b-\	Bo-	4gg\	Bo-
4A-\	-ża	4f\	-ża	4cc\	-ża	4ff\	-ża
=15	=15	=15	=15	=15	=15	=15	=15
2B-\	modl	2G/	modl	4b-\	modl	2ee-X\	modl
.	.	.	.	4g\	.	.	.
4BB-/	się	4A-\	się	4f\	się	4dd\	się
4BB-/	za	4A-\	za	4b-\	za	4dd\	za
!	!	!	!	!LO:LB:g=original	!	!	!
=16	=16	=16	=16	=16	=16	=16	=16
4E-\	na-	4G/	na-	4b-\	na-	4ee-\	na-
4E-\	-mi	4G/	-mi,	4b-\	-mi	4ee-\	-mi
2r	.	2r	.	2r	.	2r	.
!LO:LB:g=original	!	!LO:LB:g=original	!	!	!	!LO:LB:g=original	!
=17	=17	=17	=17	=17	=17	=17	=17
4E-\	te-	4B-\	te-	4g\	te-	4gg\	te-
4D\	-raz	4Bn\	-raz	4g\	-raz	4ff\	-raz
4C\	i	4c\	i	4g\	i	4ee-\	i
4G\	w_go-	4B\	w_go-	4g\	w_go-	4dd\	w_go-
=18	=18	=18	=18	=18	=18	=18	=18
4A-\	-dzi-	4c\	-dzi-	4a-\	-dzi-	4cc\	-dzi-
4F\	-ne	4c\	-ne	4a-\	-ne	4aa-\	-ne
4G\	ſmier-	4en\	ſmier-	4b-\	smier-	4gg\	smier-
4A-\	-ci	4f\	-ci	4cc\	-ci	4ff\	-ci
=19	=19	=19	=19	=19	=19	=19	=19
2B-\	na-	4G/	na-	4b-\	na-	2ee-X\	na-
.	.	4G/	-szey	4g\	.	.	.
2BB-/	-szey	4A-/	A-	4f\	.	2dd\	-szey
.	.	4A-/	-men	4b-\	-szey	.	.
=20	=20	=20	=20	=20	=20	=20	=20
.	.	.	.	.	.	8qff/	.
4E-\	A-	4G/	A-	4b-\	a-	4ee-\	A-
4E-\	-men.	4G/	-men.	4b-\	-men.	4ee-\	-men.
2r	.	2r	.	2r	.	2r	.
==	==	==	==	==	==	==	==
*-	*-	*-	*-	*-	*-	*-	*-
!!!system-decoration: [(s1,s2,s3,s4)]
!!!RDF**kern: > = above
!!!RDF**kern: < = below
!!!EED: Antoni Szymański
!!!EST: 2021-01-18
!!!AIN: 1 alto 1 bass 1 soprn 1 tenor
!!!ENC: Andrzej Kubiczek
!!!END: 2021-01-15
